; generated by PrusaSlicer 2.5.0+linux-x64-GTK3 on 2023-03-10 at 20:15:29 UTC

; 

; external perimeters extrusion width = 0.45mm
; perimeters extrusion width = 0.40mm
; infill extrusion width = 0.80mm
; solid infill extrusion width = 0.40mm
; top infill extrusion width = 0.40mm
; support material extrusion width = 0.40mm
; first layer extrusion width = 0.60mm

M107
;TYPE:Custom
G90 ; use absolute coordinates
M83 ; extruder relative mode

M140 S110 	                       ; Set heatbed temperature
M109 S240                                           ; Set hotend temperature
M190 S110 	                       ; Wait for the bed to heat up
M109 S240                                           ; Wait for the extruder to heat up
G92 E0 					    ; Reset extruder

G28 W ; home all without mesh bed level
G92 E0.0
G1 X60.0 E9.0 F1000.0 ; intro line
G1 X100.0 E12.5 F1000.0 ; intro line
G92 E0.0
G21 ; set units to millimeters
G90 ; use absolute coordinates
M82 ; use absolute distances for extrusion
G92 E0
; Filament gcode
M107
;LAYER_CHANGE
;Z:0.3
;HEIGHT:0.3
G1 Z.3 F9000
G1 E-2 F2700
G92 E0
G1 X76.749 Y117.815 F9000
G1 E2 F2700
;TYPE:Skirt/Brim
;WIDTH:0.6
G1 F1800
G1 X79.512 Y116.701 E2.21891
G1 X82.259 Y116.358 E2.42235
G1 X226.401 Y116.358 E13.01477
G1 X229.353 Y116.756 E13.23368
G1 X232.095 Y117.922 E13.45259
G1 X234.28 Y119.621 E13.65602
G1 X237.209 Y122.55 E13.96041
G1 X239.015 Y124.919 E14.17932
G1 X240.129 Y127.682 E14.39823
G1 X240.473 Y130.429 E14.60167
G1 X240.473 Y169.571 E17.47806
G1 X240.074 Y172.523 E17.69697
G1 X238.908 Y175.264 E17.91588
G1 X237.209 Y177.45 E18.11932
G1 X234.28 Y180.379 E18.42371
G1 X231.911 Y182.185 E18.64262
G1 X229.148 Y183.299 E18.86153
G1 X226.401 Y183.642 E19.06496
G1 X82.259 Y183.642 E29.65739
G1 X79.307 Y183.244 E29.87629
G1 X76.43 Y181.996 E30.10671
G1 X64.841 Y174.883 E31.10598
G1 X62.533 Y172.999 E31.32489
G1 X60.807 Y170.572 E31.5438
G1 X59.786 Y167.773 E31.76271
G1 X59.527 Y165.387 E31.93911
G1 X59.527 Y139.613 E33.8331
G1 X59.926 Y136.661 E34.05201
G1 X61.092 Y133.92 E34.27091
G1 X62.563 Y131.969 E34.45048
G1 X71.451 Y122.55 E35.40216
G1 X74.38 Y119.621 E35.70655
G1 X76.702 Y117.852 E35.92105
G1 X77.028 Y118.282 F9000
G1 F1800
G1 X77.076 Y118.246 E35.9255
G1 X79.782 Y117.186 E36.13906
G1 X82.259 Y116.893 E36.32235
G1 X226.401 Y116.893 E46.91477
G1 X229.28 Y117.291 E47.12833
G1 X231.943 Y118.456 E47.34189
G1 X233.901 Y120 E47.52518
G1 X236.83 Y122.929 E47.82957
G1 X238.584 Y125.246 E48.04313
G1 X239.644 Y127.952 E48.25669
G1 X239.937 Y130.429 E48.43998
G1 X239.937 Y169.571 E51.31638
G1 X239.539 Y172.45 E51.52994
G1 X238.374 Y175.112 E51.7435
G1 X236.83 Y177.071 E51.92679
G1 X233.901 Y180 E52.23118
G1 X231.584 Y181.754 E52.44474
G1 X228.878 Y182.814 E52.6583
G1 X226.401 Y183.107 E52.84159
G1 X82.259 Y183.107 E63.43401
G1 X79.38 Y182.709 E63.64757
G1 X76.711 Y181.54 E63.86174
G1 X65.121 Y174.427 E64.86101
G1 X62.876 Y172.581 E65.07457
G1 X61.216 Y170.196 E65.28813
G1 X60.266 Y167.45 E65.50169
G1 X60.063 Y165.387 E65.65403
G1 X60.063 Y139.613 E67.54802
G1 X60.461 Y136.735 E67.76158
G1 X61.626 Y134.072 E67.97513
G1 X62.953 Y132.336 E68.13568
G1 X71.83 Y122.929 E69.08621
G1 X74.759 Y120 E69.3906
G1 X76.98 Y118.319 E69.5953
G1 X77.304 Y118.751 F9000
G1 F1800
G1 X77.401 Y118.678 E69.6042
G1 X80.049 Y117.674 E69.81227
G1 X82.259 Y117.429 E69.97569
G1 X226.401 Y117.429 E80.56811
G1 X229.205 Y117.827 E80.77618
G1 X231.786 Y118.989 E80.98425
G1 X233.523 Y120.379 E81.14766
G1 X236.452 Y123.307 E81.45205
G1 X238.152 Y125.571 E81.66012
G1 X239.156 Y128.219 E81.86819
G1 X239.401 Y130.429 E82.0316
G1 X239.401 Y169.571 E84.908
G1 X239.003 Y172.374 E85.11607
G1 X237.841 Y174.956 E85.32414
G1 X236.452 Y176.693 E85.48755
G1 X233.523 Y179.621 E85.79194
G1 X231.259 Y181.322 E86.00001
G1 X228.611 Y182.326 E86.20808
G1 X226.401 Y182.571 E86.37149
G1 X82.259 Y182.571 E96.96392
G1 X79.456 Y182.173 E97.17199
G1 X76.991 Y181.083 E97.37005
G1 X65.402 Y173.97 E98.36931
G1 X63.221 Y172.164 E98.57738
G1 X61.628 Y169.823 E98.78545
G1 X60.751 Y167.131 E98.99352
G1 X60.599 Y165.387 E99.1222
G1 X60.599 Y139.613 E101.01619
G1 X60.997 Y136.81 E101.22426
G1 X62.159 Y134.228 E101.43233
G1 X63.342 Y132.704 E101.57413
G1 X72.209 Y123.307 E102.5235
G1 X75.138 Y120.379 E102.82789
G1 X77.256 Y118.787 E103.02264
G1 X77.579 Y119.22 F9000
G1 F1800
G1 X77.725 Y119.111 E103.03601
G1 X80.312 Y118.165 E103.23844
G1 X82.259 Y117.964 E103.38225
G1 X226.401 Y117.964 E113.97468
G1 X229.127 Y118.362 E114.17711
G1 X231.625 Y119.523 E114.37954
G1 X233.144 Y120.757 E114.52336
G1 X236.073 Y123.686 E114.82775
G1 X237.719 Y125.895 E115.03018
G1 X238.665 Y128.482 E115.23261
G1 X238.866 Y130.429 E115.37643
G1 X238.866 Y169.571 E118.25282
G1 X238.468 Y172.297 E118.45526
G1 X237.307 Y174.795 E118.65769
G1 X236.073 Y176.314 E118.8015
G1 X233.144 Y179.243 E119.10589
G1 X230.935 Y180.889 E119.30833
G1 X228.348 Y181.835 E119.51076
G1 X226.401 Y182.036 E119.65457
G1 X82.259 Y182.036 E130.247
G1 X79.533 Y181.638 E130.44943
G1 X77.271 Y180.627 E130.63152
G1 X65.682 Y173.514 E131.63079
G1 X63.567 Y171.749 E131.83322
G1 X62.045 Y169.453 E132.03565
G1 X61.242 Y166.817 E132.23809
G1 X61.134 Y165.387 E132.34351
G1 X61.134 Y139.613 E134.23751
G1 X61.532 Y136.887 E134.43994
G1 X62.693 Y134.389 E134.64237
G1 X63.732 Y133.071 E134.76571
G1 X72.392 Y123.887 E135.69335
G1 X75.516 Y120.757 E136.01831
G1 X77.531 Y119.256 E136.20297
G1 E134.20297 F2700
G92 E0
G1 X82.374 Y128.333 F9000
G1 E2 F2700
G1 F1800
G1 X83.232 Y128.03 E2.06687
G1 X83.838 Y127.947 E2.11183
G1 X224.902 Y127.952 E12.47802
G1 X225.78 Y128.13 E12.54387
G1 X226.467 Y128.422 E12.59872
G1 X227.075 Y128.825 E12.65233
G1 X227.898 Y129.627 E12.73675
G1 X228.387 Y130.326 E12.79938
G1 X228.682 Y130.995 E12.85317
G1 X228.851 Y131.69 E12.90572
G1 X228.862 Y148.328 E14.12842
G1 X228.828 Y148.609 E14.14919
G1 X228.569 Y149.407 E14.21087
G1 X228.15 Y150.154 E14.27381
G1 X227.37 Y150.971 E14.35681
G1 X225.738 Y151.902 E14.49489
G1 X224.78 Y152.126 E14.56719
G1 X223.747 Y152.112 E14.64308
G1 X222.76 Y151.834 E14.71843
G1 X219.833 Y150.161 E14.96619
G1 X219.833 Y155 E15.32181
G1 X222.882 Y153.265 E15.57964
G1 X223.827 Y153.029 E15.65117
G1 X224.735 Y153.019 E15.71791
G1 X225.653 Y153.216 E15.78692
G1 X227.174 Y154.032 E15.91378
G1 X228.004 Y154.806 E15.99719
G1 X228.59 Y155.792 E16.08145
G1 X228.883 Y156.952 E16.16936
G1 X228.851 Y168.31 E17.00402
G1 X228.712 Y168.915 E17.04964
G1 X228.466 Y169.527 E17.09815
G1 X227.89 Y170.38 E17.17377
G1 X226.867 Y171.336 E17.27662
G1 X226.287 Y171.667 E17.32569
G1 X225.428 Y171.97 E17.39265
G1 X224.822 Y172.053 E17.4376
G1 X83.821 Y172.053 E27.79917
G1 X83.012 Y171.91 E27.85955
G1 X82.271 Y171.619 E27.91806
G1 X81.547 Y171.142 E27.9818
G1 X80.577 Y170.146 E28.08393
G1 X80.192 Y169.518 E28.13807
G1 X79.909 Y168.786 E28.19577
G1 X79.781 Y168.042 E28.2512
G1 X79.778 Y165.384 E28.44653
G1 X77.296 Y166.81 E28.65685
G1 X76.319 Y167.102 E28.73183
G1 X75.28 Y167.132 E28.80822
G1 X74.332 Y166.928 E28.87943
G1 X72.688 Y166.016 E29.01758
G1 X71.888 Y165.205 E29.10131
G1 X71.451 Y164.453 E29.16526
G1 X71.182 Y163.656 E29.22704
G1 X71.138 Y163.327 E29.25143
G1 X71.117 Y141.832 E30.831
G1 X71.286 Y140.96 E30.89627
G1 X71.835 Y139.875 E30.98566
G1 X72.557 Y139.083 E31.06436
G1 X73.969 Y138.223 E31.18588
G1 X75.178 Y137.879 E31.27827
G1 X76.275 Y137.89 E31.35891
G1 X77.249 Y138.171 E31.43335
G1 X79.784 Y139.618 E31.64786
G1 X79.804 Y131.725 E32.22789
G1 X79.955 Y131.066 E32.27756
G1 X80.245 Y130.378 E32.33243
G1 X80.695 Y129.709 E32.39167
G1 X81.694 Y128.739 E32.49398
G1 X82.323 Y128.364 E32.54779
G1 X82.58 Y128.828 F9000
G1 F1800
G1 X83.335 Y128.556 E32.60678
G1 X83.858 Y128.483 E32.64554
G1 X224.875 Y128.488 E43.00836
G1 X225.598 Y128.634 E43.06256
G1 X226.196 Y128.885 E43.11021
G1 X226.721 Y129.227 E43.15624
G1 X227.505 Y129.992 E43.23672
G1 X227.93 Y130.607 E43.2917
G1 X228.181 Y131.185 E43.33798
G1 X228.323 Y131.782 E43.38309
G1 X228.326 Y148.31 E44.59768
G1 X228.3 Y148.514 E44.61276
G1 X228.07 Y149.213 E44.66683
G1 X227.702 Y149.859 E44.72145
G1 X227.014 Y150.57 E44.79417
G1 X225.511 Y151.415 E44.92083
G1 X224.697 Y151.596 E44.98214
G1 X223.795 Y151.578 E45.04843
G1 X222.942 Y151.329 E45.11373
G1 X219.297 Y149.234 E45.42267
G1 X219.297 Y155.926 E45.91448
G1 X223.052 Y153.774 E46.2325
G1 X223.869 Y153.564 E46.29453
G1 X224.659 Y153.55 E46.3526
G1 X225.436 Y153.707 E46.41081
G1 X226.888 Y154.487 E46.53197
G1 X227.608 Y155.169 E46.60485
G1 X228.082 Y155.964 E46.67287
G1 X228.347 Y156.986 E46.75046
G1 X228.323 Y168.219 E47.5759
G1 X228.195 Y168.773 E47.61768
G1 X227.981 Y169.299 E47.65945
G1 X227.5 Y170.012 E47.72258
G1 X226.571 Y170.888 E47.81647
G1 X226.082 Y171.171 E47.85801
G1 X225.325 Y171.444 E47.91711
G1 X224.803 Y171.517 E47.95586
G1 X83.844 Y171.517 E58.31433
G1 X83.179 Y171.401 E58.36393
G1 X82.538 Y171.153 E58.41448
G1 X81.907 Y170.744 E58.46971
G1 X81.016 Y169.838 E58.56314
G1 X80.681 Y169.298 E58.60983
G1 X80.431 Y168.664 E58.65987
G1 X80.317 Y168.017 E58.70814
G1 X80.312 Y164.459 E58.96961
G1 X77.058 Y166.329 E59.24542
G1 X76.205 Y166.578 E59.31072
G1 X75.303 Y166.596 E59.37701
G1 X74.489 Y166.415 E59.43832
G1 X72.986 Y165.57 E59.56499
G1 X72.298 Y164.859 E59.63771
G1 X71.93 Y164.213 E59.69232
G1 X71.7 Y163.514 E59.74639
G1 X71.674 Y163.311 E59.76146
G1 X71.653 Y141.856 E61.33808
G1 X71.783 Y141.164 E61.38983
G1 X72.26 Y140.203 E61.46869
G1 X72.87 Y139.519 E61.53603
G1 X74.215 Y138.7 E61.65171
G1 X75.281 Y138.406 E61.73298
G1 X76.226 Y138.425 E61.80247
G1 X77.065 Y138.674 E61.86676
G1 X80.317 Y140.543 E62.14242
G1 X80.34 Y131.759 E62.78799
G1 X80.471 Y131.213 E62.82925
G1 X80.704 Y130.655 E62.8737
G1 X81.123 Y130.032 E62.92886
G1 X82.042 Y129.147 E63.02261
G1 X82.528 Y128.859 E63.06414
G1 X82.788 Y129.322 F9000
G1 F1800
G1 X83.441 Y129.082 E63.11533
G1 X83.878 Y129.018 E63.14772
G1 X224.848 Y129.024 E73.50709
G1 X225.418 Y129.139 E73.54984
G1 X225.929 Y129.35 E73.59041
G1 X226.367 Y129.63 E73.62864
G1 X227.111 Y130.356 E73.70502
G1 X227.472 Y130.886 E73.75213
G1 X227.678 Y131.371 E73.79088
G1 X227.794 Y131.872 E73.82867
G1 X227.791 Y148.291 E75.03519
G1 X227.774 Y148.414 E75.04434
G1 X227.571 Y149.015 E75.09095
G1 X227.257 Y149.56 E75.13719
G1 X226.661 Y150.165 E75.19962
G1 X225.289 Y150.926 E75.31484
G1 X224.621 Y151.065 E75.365
G1 X223.848 Y151.044 E75.42184
G1 X223.128 Y150.826 E75.47711
G1 X218.762 Y148.305 E75.84761
G1 X218.762 Y156.851 E76.4756
G1 X223.284 Y154.258 E76.85869
G1 X223.964 Y154.092 E76.9101
G1 X224.637 Y154.086 E76.95959
G1 X225.219 Y154.199 E77.00314
G1 X226.604 Y154.942 E77.11864
G1 X227.171 Y155.479 E77.17603
G1 X227.575 Y156.143 E77.23315
G1 X227.812 Y157.022 E77.30006
G1 X227.794 Y168.128 E78.11619
G1 X227.678 Y168.63 E78.15405
G1 X227.496 Y169.069 E78.18899
G1 X227.109 Y169.645 E78.23995
G1 X226.272 Y170.443 E78.32499
G1 X225.873 Y170.678 E78.35901
G1 X225.219 Y170.918 E78.4102
G1 X224.783 Y170.982 E78.44258
G1 X83.869 Y170.982 E88.79775
G1 X83.302 Y170.879 E88.84008
G1 X82.761 Y170.666 E88.88281
G1 X82.227 Y170.314 E88.92982
G1 X81.422 Y169.487 E89.01462
G1 X81.152 Y169.042 E89.05288
G1 X80.941 Y168.498 E89.09579
G1 X80.849 Y167.951 E89.13651
G1 X80.849 Y163.53 E89.4614
G1 X76.872 Y165.826 E89.79882
G1 X76.152 Y166.044 E89.85409
G1 X75.379 Y166.065 E89.91094
G1 X74.711 Y165.926 E89.9611
G1 X73.339 Y165.165 E90.07632
G1 X72.743 Y164.56 E90.13875
G1 X72.429 Y164.015 E90.18499
G1 X72.226 Y163.414 E90.2316
G1 X72.209 Y163.291 E90.24074
G1 X72.188 Y141.882 E91.81396
G1 X72.301 Y141.305 E91.85719
G1 X72.722 Y140.477 E91.92546
G1 X73.184 Y139.956 E91.97664
G1 X74.459 Y139.178 E92.08642
G1 X75.378 Y138.934 E92.15625
G1 X76.171 Y138.959 E92.21457
G1 X76.876 Y139.176 E92.26883
G1 X80.85 Y141.471 E92.60603
G1 X80.875 Y131.795 E93.3171
G1 X80.985 Y131.364 E93.34975
G1 X81.164 Y130.931 E93.3842
G1 X81.551 Y130.355 E93.43517
G1 X82.389 Y129.557 E93.52021
G1 X82.736 Y129.353 E93.54982
G1 X83.001 Y129.814 F9000
G1 F1800
G1 X83.551 Y129.607 E93.59304
G1 X83.899 Y129.554 E93.61884
G1 X224.821 Y129.559 E103.97468
G1 X225.238 Y129.644 E104.00592
G1 X225.703 Y129.836 E104.04292
G1 X226.013 Y130.033 E104.06989
G1 X226.716 Y130.72 E104.1421
G1 X227.012 Y131.16 E104.18108
G1 X227.174 Y131.553 E104.21231
G1 X227.265 Y131.959 E104.24292
G1 X227.249 Y148.306 E105.44421
G1 X227.094 Y148.771 E105.48019
G1 X226.811 Y149.26 E105.52172
G1 X226.312 Y149.758 E105.57353
G1 X225.07 Y150.435 E105.67746
G1 X224.601 Y150.529 E105.71264
G1 X223.961 Y150.519 E105.75967
G1 X223.367 Y150.345 E105.80514
G1 X218.226 Y147.377 E106.24136
G1 X218.226 Y157.775 E107.00547
G1 X223.517 Y154.742 E107.45362
G1 X223.998 Y154.627 E107.48999
G1 X224.613 Y154.621 E107.53516
G1 X225.071 Y154.715 E107.5695
G1 X226.313 Y155.393 E107.67354
G1 X226.77 Y155.837 E107.72034
G1 X227.096 Y156.383 E107.76709
G1 X227.276 Y157.057 E107.81832
G1 X227.265 Y168.041 E108.6255
G1 X227.174 Y168.447 E108.6561
G1 X227.012 Y168.84 E108.68733
G1 X226.717 Y169.28 E108.72625
G1 X225.969 Y170.001 E108.80257
G1 X225.659 Y170.186 E108.82908
G1 X225.109 Y170.393 E108.87231
G1 X224.762 Y170.446 E108.89811
G1 X83.895 Y170.446 E119.24983
G1 X83.429 Y170.358 E119.28465
G1 X82.989 Y170.181 E119.31953
G1 X82.55 Y169.886 E119.35835
G1 X81.83 Y169.139 E119.43467
G1 X81.644 Y168.828 E119.46128
G1 X81.451 Y168.33 E119.50051
G1 X81.384 Y167.93 E119.53035
G1 X81.384 Y162.602 E119.92182
G1 X76.633 Y165.345 E120.32497
G1 X76.039 Y165.519 E120.37044
G1 X75.399 Y165.529 E120.41748
G1 X74.93 Y165.435 E120.45266
G1 X73.688 Y164.758 E120.55659
G1 X73.189 Y164.26 E120.60839
G1 X72.906 Y163.771 E120.64993
G1 X72.745 Y163.267 E120.68882
G1 X72.724 Y141.91 E122.25825
G1 X72.817 Y141.451 E122.29268
G1 X73.181 Y140.753 E122.35051
G1 X73.498 Y140.391 E122.38584
G1 X74.705 Y139.655 E122.48974
G1 X75.4 Y139.471 E122.54259
G1 X76.117 Y139.493 E122.59531
G1 X76.634 Y139.655 E122.63507
G1 X81.385 Y142.398 E123.03823
G1 X81.403 Y131.891 E123.81035
G1 X81.487 Y131.55 E123.83618
G1 X81.649 Y131.16 E123.86715
G1 X81.944 Y130.72 E123.90607
G1 X82.691 Y129.999 E123.98239
G1 X82.949 Y129.845 E124.00449
G1 X83.219 Y130.304 F9000
G1 F1800
G1 X83.666 Y130.131 E124.03972
G1 X83.921 Y130.09 E124.05867
G1 X224.791 Y130.095 E134.41063
G1 X225.099 Y130.162 E134.43379
G1 X225.442 Y130.304 E134.46112
G1 X225.661 Y130.439 E134.48002
G1 X226.322 Y131.083 E134.54783
G1 X226.527 Y131.389 E134.57489
G1 X226.669 Y131.734 E134.60229
G1 X226.735 Y132.042 E134.62545
G1 X226.72 Y148.204 E135.81309
G1 X226.615 Y148.529 E135.83821
G1 X226.365 Y148.962 E135.87497
G1 X226.018 Y149.308 E135.91099
G1 X224.917 Y149.921 E136.00357
G1 X224.577 Y149.993 E136.02908
G1 X224.006 Y149.984 E136.07105
G1 X223.608 Y149.866 E136.1016
G1 X217.69 Y146.45 E136.6037
G1 X217.69 Y158.7 E137.50392
G1 X223.744 Y155.229 E138.01674
G1 X224.079 Y155.157 E138.04188
G1 X224.581 Y155.157 E138.07882
G1 X224.917 Y155.229 E138.10402
G1 X226.018 Y155.842 E138.19661
G1 X226.365 Y156.188 E138.23264
G1 X226.614 Y156.619 E138.26922
G1 X226.74 Y157.092 E138.30518
G1 X226.735 Y167.958 E139.10369
G1 X226.669 Y168.266 E139.12685
G1 X226.527 Y168.611 E139.15425
G1 X226.322 Y168.917 E139.18131
G1 X225.662 Y169.561 E139.24911
G1 X225.441 Y169.696 E139.26814
G1 X224.994 Y169.869 E139.30337
G1 X224.739 Y169.91 E139.32232
G1 X83.923 Y169.91 E149.67036
G1 X83.562 Y169.839 E149.69736
G1 X83.22 Y169.697 E149.72462
G1 X82.914 Y169.492 E149.75168
G1 X82.269 Y168.831 E149.81948
G1 X82.134 Y168.611 E149.83851
G1 X81.961 Y168.164 E149.87374
G1 X81.92 Y167.909 E149.89268
G1 X81.92 Y161.675 E150.35083
G1 X76.392 Y164.866 E150.81986
G1 X75.994 Y164.984 E150.85041
G1 X75.423 Y164.993 E150.89238
G1 X75.083 Y164.921 E150.91789
G1 X73.982 Y164.308 E151.01046
G1 X73.635 Y163.962 E151.04649
G1 X73.385 Y163.529 E151.08325
G1 X73.28 Y163.204 E151.10837
G1 X73.26 Y141.939 E152.67098
G1 X73.332 Y141.603 E152.69625
G1 X73.636 Y141.038 E152.74342
G1 X73.867 Y140.781 E152.76879
G1 X74.947 Y140.134 E152.86134
G1 X75.423 Y140.007 E152.89753
G1 X76.062 Y140.027 E152.94452
G1 X76.39 Y140.132 E152.96978
G1 X81.92 Y143.325 E153.43905
